X: 95
T: Qing en Joking mind
L: 1/8
M: 2/4
K: C
G2c A [I:setbarnb 1]| 
c ed2 | 
G2c A | 
G2G2 | 
c dG2 | 
d gc2 | 
A G/ G/ E D | 
G> AG2 | 
EG2A | 
c de2 | 
E2G E | 
D2D2 | 
G A D E | 
G A d c | 
Ac2d | 
c4 |]

@@@ Tune index: 8763
